src/assets/images/icons/copy.svg

<?xml version="1.0" encoding="UTF-8"?>
<svg width="14px" height="14px" viewBox="0 0 14 14" version="1.1" xmlns="http://www.w3.org/2000/svg" xmlns:xlink="http://www.w3.org/1999/xlink">
    <!-- Generator: Sketch 52.6 (67491) - http://www.bohemiancoding.com/sketch -->
    <title>copy</title>
    <desc>Created with Sketch.</desc>
    <g id="Page-1" stroke="none" stroke-width="1" fill="none" fill-rule="evenodd">
        <g id="copy" fill="#112094">
            <path d="M13,10 C12.4477153,10 12,9.55228475 12,9 L12,2 L5,2 C4.44771525,2 4,1.55228475 4,1 C4,0.44771525 4.44771525,1.01453063e-16 5,0 L13,0 C13.5522847,3.38176876e-17 14,0.44771525 14,1 L14,9 C14,9.55228475 13.5522847,10 13,10 Z M10,5 L10,13 C10,13.5522847 9.55228475,14 9,14 L1,14 C0.44771525,14 6.76353751e-17,13.5522847 0,13 L0,5 C-6.76353751e-17,4.44771525 0.44771525,4 1,4 L9,4 C9.55228475,4 10,4.44771525 10,5 Z M8,6 L2,6 L2,12 L8,12 L8,6 Z" id="Shape"></path>
        </g>
    </g>
</svg>

<svg xmlns="http://www.w3.org/2000/svg" width="14" height="14">
    <path fill="#5C34A2" fill-rule="evenodd" d="M13 10a1 1 0 0 1-1-1V2H5a1 1 0 0 1 0-2h8a1 1 0 0 1 1 1v8a1 1 0 0 1-1 1zm-3-5v8a1 1 0 0 1-1 1H1a1 1 0 0 1-1-1V5a1 1 0 0 1 1-1h8a1 1 0 0 1 1 1zM8 6H2v6h6V6z"/>
</svg>
